src/lib/packages/icons/src/assets/line/at.svg

<svg xmlns="http://www.w3.org/2000/svg" width="24" height="24" fill="none"><path fill="currentColor" d="M12 2.25c-5.376 0-9.75 4.374-9.75 9.75s4.374 9.75 9.75 9.75a.75.75 0 0 0 0-1.5c-4.549 0-8.25-3.701-8.25-8.25 0-4.549 3.701-8.25 8.25-8.25 4.549 0 8.25 3.701 8.25 8.25 0 1.64-1.114 3.25-2.25 3.25-1.063 0-1.75-.883-1.75-2.25V8.5a.75.75 0 0 0-1.5 0v.287A4.21 4.21 0 0 0 12 7.75 4.254 4.254 0 0 0 7.75 12 4.254 4.254 0 0 0 12 16.25c1.242 0 2.35-.545 3.129-1.397.582 1.284 1.751 1.897 2.871 1.897 2.21 0 3.75-2.503 3.75-4.75 0-5.376-4.374-9.75-9.75-9.75Zm0 12.5A2.753 2.753 0 0 1 9.25 12 2.753 2.753 0 0 1 12 9.25 2.753 2.753 0 0 1 14.75 12 2.753 2.753 0 0 1 12 14.75Z"/></svg>

<svg width="24" height="24" viewBox="0 0 24 24" fill="none" xmlns="http://www.w3.org/2000/svg">
<path d="M12 2.25C6.624 2.25 2.25 6.624 2.25 12C2.25 17.376 6.624 21.75 12 21.75C12.414 21.75 12.75 21.414 12.75 21C12.75 20.586 12.414 20.25 12 20.25C7.451 20.25 3.75 16.549 3.75 12C3.75 7.451 7.451 3.75 12 3.75C16.549 3.75 20.25 7.451 20.25 12C20.25 13.64 19.136 15.25 18 15.25C16.937 15.25 16.25 14.367 16.25 13V8.5C16.25 8.086 15.914 7.75 15.5 7.75C15.086 7.75 14.75 8.086 14.75 8.5V8.78699C14.007 8.14999 13.054 7.75 12 7.75C9.656 7.75 7.75 9.656 7.75 12C7.75 14.344 9.656 16.25 12 16.25C13.242 16.25 14.3509 15.705 15.1289 14.853C15.7109 16.137 16.88 16.75 18 16.75C20.21 16.75 21.75 14.247 21.75 12C21.75 6.624 17.376 2.25 12 2.25ZM12 14.75C10.483 14.75 9.25 13.516 9.25 12C9.25 10.484 10.483 9.25 12 9.25C13.517 9.25 14.75 10.484 14.75 12C14.75 13.516 13.517 14.75 12 14.75Z" fill="currentColor"/>
</svg>
